X:1
T:Erlesdene, 88.88.88
T:Erlesdene, 88.88.88
T:J. H. Martin, probably 19th Century
T:Public Domain Courtesy of the Cyber Hymnal™
C:J. H. Martin, probably 19th Century
Z:Public Domain
Z:Courtesy of the Cyber Hymnal™
%%score ( 1 2 ) ( 3 4 )
L:1/8
M:3/4
K:Ab
V:1 treble 
V:2 treble 
V:3 bass 
V:4 bass 
V:1
 [CE]2 | (c2 B2) [EA]2 | [Fd]4 [DF]2 | (E3 F) [DG]2 | [CA]4 [CA]2 | ([FA]2 [EG]2) [DF]2 | %6
 [CE]4 [EA]2 | (c2 B2) [_DA]2 | [EB]4 E2 | ([Ec]2 [DB]2) [CA]2 | [Fd]4 [DF]2 | (E3 F) [DG]2 | %12
 [CA]4 [CA]2 | ([FA]2 [EG]2) [DF]2 | [CE]4 [EA]2 | (B2 F2) [EG]2 | [EA]6 | [Ec]2 [Ec]2 [Ec]2 | %18
 [EB]4 E2 | [Ed]4 [Gd]2 | [Ac]4 [Ac]2 | (c2 e2) [EA]2 | F2 B2 [Fd]2 | [Ec]4 [DB]2 | [CA]4 |] %25
V:2
 x2 | E4 x2 | x6 | C4 x2 | x6 | x6 | x6 | =D4 x2 | x4 E2 | x6 | x6 | C4 x2 | x6 | x6 | x6 | F4 x2 | %16
 x6 | x6 | x4 E2 | x6 | x6 | E4 x2 | F4 x2 | x6 | x4 |] %25
V:3
 A,2 | (A,2 D2) [A,C]2 | [D,D]4 [D,A,]2 | [E,A,]4 [E,B,]2 | [A,,A,]4 [A,,A,]2 | [D,A,]4 [D,A,]2 | %6
 [A,,A,]4 [A,C]2 | [F,A,]4 [F,A,]2 | [E,G,]4 [E,G,]2 | [A,,A,]4 A,2 | [D,A,]4 [D,A,]2 | %11
 [E,A,]4 [E,B,]2 | [A,,A,]4 [A,,A,]2 | [D,A,]4 [D,A,]2 | [A,,A,]4 [C,A,]2 | [D,D]4 [E,B,]2 | %16
 [A,,C]6 | [A,,A,]2 [C,A,]2 [A,,A,]2 | [E,G,]4 [E,G,]2 | [E,G,]2 [G,B,]2 [E,E]2 | [A,E]4 [A,E]2 | %21
 ([A,,A,]2 [B,,G,]2) [C,A,]2 | [D,D]4 [D,A,]2 | [E,A,]4 [E,G,]2 | [A,,A,]4 |] %25
V:4
 A,2 | A,4 x2 | x6 | x6 | x6 | x6 | x6 | x6 | x6 | x4 A,2 | x6 | x6 | x6 | x6 | x6 | x6 | x6 | x6 | %18
 x6 | x6 | x6 | x6 | x6 | x6 | x4 |] %25

